**kern	**kern	**kern	**kern
*MM60	*MM60	*MM60	*MM60
*k[b-e-]	*k[b-e-]	*k[b-e-]	*k[b-e-]
*M4/4	*M4/4	*M4/4	*M4/4
*tb32	*tb32	*tb32	*tb32
=1	=1	=1	=1
1r	1r	4r	1r
.	.	4d	.
.	.	4B-T	.
.	.	8r	.
.	.	8e-	.
=2	=2	=2	=2
1r	2r	8c	1r
.	.	8A	.
.	.	4dM	.
.	8G	4r	.
.	8A	.	.
.	8B-	4g	.
.	8c	.	.
=3	=3	=3	=3
1r	8d	4fT	1r
.	8A	.	.
.	2d	8r	.
.	.	8b-	.
.	.	8g	.
.	.	8e	.
.	[4c	4aM	.
=4	=4	=4	=4
1r	4.c]	8d	4r
.	.	8f#	.
.	.	4.g	4dd
.	8B-	.	.
.	4e-	.	4b-T
.	.	8f#	.
.	4c	[4g	8r
.	.	.	8ee-
=5	=5	=5	=5
2r	4A	4g]	8cc
.	.	.	8a
.	8B	4f	4ddM
.	16e-	.	.
.	16d	.	.
4r	4c	4e	8g
.	.	.	8a
4G	4B-	8d	8b-
.	.	8e	8cc
=6	=6	=6	=6
4F	4c	[4f	8a
.	.	.	16b-
.	.	.	16cc
8r	[4B-	8f]	2dd
8B-	.	16g	.
.	.	16f	.
8G	8B-]	8e	.
8E	8G	8b-	.
4A	8c	8a	[4cc
.	8e-	8g	.
=7	=7	=7	=7
4D	4.d	4f#	8cc]
.	.	.	16b-
.	.	.	16a
8r	.	[4g	[4b-
8G	16e-	.	.
.	16d	.	.
8E-	[2c	4g]	8b-]
8C	.	.	8g
4F	.	8f	[4a
.	.	8e-	.
=8	=8	=8	=8
4BB-	8c]	[4d	8a]
.	16B-	.	16g
.	16A	.	16f#
8r	8B-	8d]	[4g
8E-	16A	16c	.
.	16G	16B-	.
8C	4.A	8e-	4g]
8AA	.	8c	.
4D	.	4d	4f#
.	16B-	.	.
.	16c	.	.
=9	=9	=9	=9
4GG	8B-	4d	4g
.	8A	.	.
4r	8B-	4r	4gg
.	8G	.	.
2r	4d	8r	4ffT
.	.	8a	.
.	8r	[4dd	8r
.	8d	.	8bb-
=10	=10	=10	=10
1r	4e	8dd]	8gg
.	.	4cc	8ee
.	4f#	.	4aa
.	.	16b-	.
.	.	16a	.
.	8g	4.b-	8dd
.	8f	.	16ee
.	.	.	16ff
.	8e	.	[4gg
.	8d	16cc	.
.	.	16b-	.
=11	=11	=11	=11
1r	8c#	4.a	8gg]
.	8A	.	16ff
.	.	.	16ee
.	4d	.	[4ff
.	.	16b-	.
.	.	16cc	.
.	4G	8b-	4ff]
.	.	16a	.
.	.	16b-	.
.	8r	4g	[4ee
.	8c	.	.
=12	=12	=12	=12
2r	8A	4.f	8ee]
.	8F	.	16dd
.	.	.	16cc#
.	8r	.	[4dd
.	8B-	16g	.
.	.	16f	.
4r	8G	4.e	8dd]
.	8E	.	16cc#
.	.	.	16b
4AA	4A	.	4cc#
.	.	16f	.
.	.	16g	.
=13	=13	=13	=13
4FF	8D	8a	4dd
.	8A	16g	.
.	.	16a	.
8r	2d	8f	16r
.	.	.	16dd
8BB-	.	16g	16ee
.	.	16a	16ff
8GG	.	8b-	16ee
.	.	.	16dd
8EE	.	8g	16ee
.	.	.	16ff
4AA	4c#	4a	16ee
.	.	.	16gg
.	.	.	16ff
.	.	.	16ee
=14	=14	=14	=14
4DD	16d	4a	16ff
.	16e	.	16gg
.	16f	.	16aa
.	16d	.	16ff
4r	16g	8r	2bb-
.	16f	.	.
.	16e	8gg	.
.	16d	.	.
2r	16c	8ee	.
.	16d	.	.
.	16e	8cc	.
.	16c	.	.
.	16f	8r	[4aa
.	16e-	.	.
.	16d	8ff	.
.	16c	.	.
=15	=15	=15	=15
2r	16B-	8dd	4aa]
.	16c	.	.
.	16d	8b-	.
.	16B-	.	.
.	16e-	8r	2gg
.	16d	.	.
.	16c	8ee-	.
.	16B-	.	.
4r	16A	8cc	.
.	16B-	.	.
.	16c	8a	.
.	16A	.	.
4D	16d	8r	4ff#
.	16c	.	.
.	16B-	[8dd	.
.	16A	.	.
=16	=16	=16	=16
4BB-	4G	16dd]	4gg
.	.	16cc	.
.	.	16b-	.
.	.	16a	.
8r	16r	[4g	8r
.	16G	.	.
8E-	16A	.	8gg
.	16B-	.	.
8C	16A	4g]	8ee-
.	16G	.	.
8AA	16A	.	8cc
.	16B-	.	.
4D	16A	[4f	8r
.	16c	.	.
.	16B	.	8ff
.	16A	.	.
=17	=17	=17	=17
4GG	16B	4f]	8dd
.	16c	.	.
.	16d	.	8b
.	16B	.	.
4r	2e-	16e-	8cc
.	.	16b-	.
.	.	16a-	8ccc
.	.	16g	.
2r	.	16f	8aa-
.	.	16g	.
.	.	16a-	8ff
.	.	16f	.
.	[4d	16b-	8r
.	.	16a-	.
.	.	16g	8bb-
.	.	16f	.
=18	=18	=18	=18
2r	4d]	16e-	8gg
.	.	16f	.
.	.	16g	8ee-
.	.	16e-	.
.	2c	16a-	8r
.	.	16g	.
.	.	16f	8aa-
.	.	16e-	.
4r	.	16d	8ff
.	.	16e-	.
.	.	16f	8dd
.	.	16d	.
4G	4B	16g	8r
.	.	16f	.
.	.	16e-	[8gg
.	.	16d	.
=19	=19	=19	=19
4E-	8c	4c	16gg]
.	.	.	16ff
.	16g	.	16ee-
.	16f	.	16dd
8r	16e-	8r	[4cc
.	16d	.	.
8A-	16c	8e-	.
.	16B-	.	.
8F	16A-	2d	4cc]
.	16G	.	.
8D	16F	.	.
.	16E-	.	.
4G	16D	.	[4b-
.	16G	.	.
.	16F	.	.
.	16G	.	.
=20	=20	=20	=20
4C	16E	4.c	8b-]
.	16C	.	.
.	16D	.	8b-
.	16E	.	.
4r	16F	.	4a-
.	16G	.	.
.	16A-	[8f	.
.	16B-	.	.
2r	16c	8f]	[4g
.	16B	.	.
.	16c	8f	.
.	16d	.	.
.	16c	[4e-	8g]
.	16B-	.	.
.	16A	.	8cc
.	16G	.	.
=21	=21	=21	=21
2r	16A	8e-]	[4f
.	16F	.	.
.	16G	8e-	.
.	16A	.	.
.	16B-	4d	8f]
.	16A	.	.
.	16G	.	[8b-
.	16F	.	.
4r	16E-	[4c	8b-]
.	16C	.	.
.	16D	.	8b-
.	16E-	.	.
4F	[4F	16c]	[4a
.	.	16c	.
.	.	16d	.
.	.	16e-	.
=22	=22	=22	=22
4D	16F]	[4f	16a]
.	16F	.	16a
.	16G	.	16b-
.	16A	.	16cc
8r	2B-	16f]	4dd
.	.	16d	.
8G	.	16e-	.
.	.	16f	.
8E-	.	16g	[2cc
.	.	16f	.
8C	.	16e-	.
.	.	16d	.
4F	[4A	16c	.
.	.	16d	.
.	.	16e-	.
.	.	16c	.
=23	=23	=23	=23
4BB-	4A]	16d	4cc]
.	.	16e	.
.	.	16f#	.
.	.	16d	.
8r	16G	[4g	4b-
.	16A	.	.
8E-	16B-	.	.
.	16G	.	.
8C	16e-	4g]	[4a
.	16d	.	.
8AA	16c	.	.
.	16B-	.	.
4D	16A	4f	8a]
.	16d	.	.
.	16c	.	[8ff
.	16d	.	.
=24	=24	=24	=24
4GG	16B	4.g	8ff]
.	16G	.	.
.	16A	.	16ee-
.	16B	.	16dd
8r	16c	.	2ee-
.	16d	.	.
8C	16e-	8g	.
.	16d	.	.
8AA-	16c	[4f	.
.	16B-	.	.
8FF	16A-	.	.
.	16G	.	.
4BB-	16F	16f]	4dd
.	16A-	16cc	.
.	16G	16b-	.
.	16F	16a-	.
=25	=25	=25	=25
4EE-	16E-	4g	4ee-
.	16B-	.	.
.	16c	.	.
.	16d	.	.
4r	[4e-	8r	4r
.	.	8cc	.
2r	4e-]	8a-	8r
.	.	8f	8aa-
.	[4d	4b-	8ff
.	.	.	8dd
=26	=26	=26	=26
1r	8d]	4e-	8r
.	16c	.	8gg
.	16B	.	.
.	[4c	8r	8ee-
.	.	8a-	8cc
.	4c]	8f	8r
.	.	8d	8ff
.	4B	[4g	16dd
.	.	.	16gg
.	.	.	16ff
.	.	.	16gg
=27	=27	=27	=27
1r	4c	4g_	16ee-
.	.	.	16dd
.	.	.	16cc
.	.	.	16b-
.	4c#	16g]	[4a
.	.	16g	.
.	.	16f#	.
.	.	16e	.
.	16d	4f#	8a]
.	16A	.	.
.	16c	.	8aa
.	16B-	.	.
.	16A	4r	8ff#
.	16G	.	.
.	16F#	.	8dd
.	16E	.	.
=28	=28	=28	=28
4BB-	4D	8r	[2gg
.	.	8dd	.
8r	4r	8b-	.
8E-	.	8g	.
8C	8r	[4a	16gg]
.	.	.	16gg
8AA	8c	.	16ff
.	.	.	16ee-
4D	8A	16a]	[4ff
.	.	16a	.
.	8F	16b	.
.	.	16cc	.
=29	=29	=29	=29
4GG	8r	4b	16ff]
.	.	.	16ff
.	8g	.	16ee-
.	.	.	16dd
8r	8e-	16cc	[4ee-
.	.	16b-	.
8c	8c	16a	.
.	.	16g	.
8A	8r	8f	16ee-]
.	.	.	16ee-
8F	8f	[8a	16dd
.	.	.	16cc
8r	8d	16a]	[4dd
.	.	16a	.
8B-	8B-	16g	.
.	.	16f#	.
=30	=30	=30	=30
8G	8r	[4g	16dd]
.	.	.	16dd
8E	8G	.	16cc
.	.	.	16b-
8r	8A	16g]	[4cc
.	.	16g	.
8A	8c	16f#	.
.	.	16e	.
8F#	8r	[4d	16cc]
.	.	.	16cc
8D	8F#	.	16b-
.	.	.	16a
8G	8G	16d]	[4b-
.	.	16d	.
8GG	8B-	16g	.
.	.	16f	.
=31	=31	=31	=31
[4C	4c	4e-	16b-]
.	.	.	16a
.	.	.	16b-
.	.	.	16g
16C]	8r	8r	[4a-
16E-	.	.	.
16D	8B-	[8f	.
16F	.	.	.
[4E-	[4B-	8f]	16a-]
.	.	.	16g
.	.	16e-	16a-
.	.	16d	16f#
16E-]	8B-]	4e-	[4g
16G	.	.	.
16C	16A	.	.
16E-	16G	.	.
=32	=32	=32	=32
[4AA	4A	4c	16g]
.	.	.	16f#
.	.	.	16a
.	.	.	16cc
16AA]	8r	8r	[4ee-
16C	.	.	.
16BB-	8G	8g	.
16D	.	.	.
[4C	4A	4f#	16ee-]
.	.	.	16dd
.	.	.	16cc
.	.	.	16b-
16C]	8r	8r	16a
16E-	.	.	16cc
16AA	8A	8c	16f#
16C	.	.	16a
=33	=33	=33	=33
4FF#	4A	4c	8e-
.	.	.	8d
8r	8r	8r	8r
8F#	8A	[8d	16a
.	.	.	32b-
.	.	.	32cc
8G	8G	8d]	8b-
8E-	8B-	[8e-	16a
.	.	.	16g
8C	8c	8e-]	16b-
.	.	.	16a
8D	8A	[8d	16g
.	.	.	16f#
=34	=34	=34	=34
8E-	[4G	16d]	[2g
.	.	16B-	.
8EE-	.	16c	.
.	.	16A	.
8DD	8G]	8.B-	.
8D	16F#	.	.
.	16G	16B-	.
4C#	4E	4A	16g]
.	.	.	16bb-
.	.	.	16aa
.	.	.	16ff#
8r	8r	8r	16gg
.	.	.	16ee
8C#	8G	8e	16b-
.	.	.	16a
=35	=35	=35	=35
4D	4G	8d	16g
.	.	.	16gg
.	.	16c	16a
.	.	16B-	16g
4DD	8F#	[4c	16a
.	.	.	16dd
.	[8D	.	16gg
.	.	.	16ff#
2GG	2D]	4c]	2gg 2dd 2g
.	.	4B	.
==	==	==	==
*-	*-	*-	*-
